icons/not_ok_fill.svg

<svg width="48" height="48" viewBox="0 0 48 48" fill="none" xmlns="http://www.w3.org/2000/svg">
<path d="M14.8073 23.2328C14.1242 22.7954 13.6237 22.0879 13.7428 21.3502C13.7667 21.2025 13.8554 21.0732 13.9847 20.9979C14.114 20.9225 14.2702 20.909 14.4105 20.9611C16.2287 21.6362 18.2567 21.2174 20.0526 19.5127C20.1764 19.3951 20.3517 19.3489 20.5174 19.39C20.6831 19.4312 20.8163 19.5541 20.8707 19.7159C21.1024 20.4047 20.8948 21.3341 20.3905 22.0976C19.8685 22.8878 18.983 23.5791 17.737 23.763C16.5386 23.9399 15.521 23.69 14.8073 23.2328Z" fill="black"/>
<path d="M32.7542 23.2328C33.4373 22.7954 33.9377 22.0879 33.8187 21.3502C33.7948 21.2025 33.7061 21.0732 33.5768 20.9979C33.4475 20.9225 33.2913 20.909 33.151 20.9611C31.3327 21.6362 29.3048 21.2174 27.5089 19.5127C27.3851 19.3951 27.2098 19.3489 27.0441 19.39C26.8784 19.4312 26.7452 19.5541 26.6907 19.7159C26.459 20.4047 26.6666 21.3341 27.171 22.0976C27.693 22.8878 28.5785 23.5791 29.8244 23.763C31.0229 23.9399 32.0404 23.69 32.7542 23.2328Z" fill="black"/>
<path d="M16.9651 32.1762C17.0623 31.8206 17.2104 31.4554 17.396 31.1707C18.6644 29.2247 21.1507 28 23.8924 28C26.5378 28 28.9396 29.1388 30.2458 30.9616C30.2483 30.965 30.2543 30.973 30.2631 30.9845C30.3137 31.0511 30.4553 31.2375 30.5414 31.3877C30.7053 31.6733 30.8249 32.0247 30.898 32.3605C30.9718 32.6991 31.0149 33.0977 30.9737 33.4844C30.9358 33.84 30.8037 34.3839 30.3336 34.7525C29.8109 35.1624 29.1841 35.1245 28.6779 34.9467C26.2836 34.1646 25.1485 33.8278 24.0296 33.8215C22.9145 33.8152 21.7529 34.1383 19.316 34.9489L19.3081 34.9515L19.3001 34.954C18.7402 35.1299 18.0785 35.1698 17.5284 34.7669C17.0011 34.3807 16.8603 33.7906 16.8298 33.3898C16.7976 32.9661 16.8672 32.534 16.9651 32.1762Z" fill="black"/>
<path fill-rule="evenodd" clip-rule="evenodd" d="M42 24C42 33.9411 33.9411 42 24 42C14.0589 42 6 33.9411 6 24C6 14.0589 14.0589 6 24 6C33.9411 6 42 14.0589 42 24ZM40 24C40 32.8366 32.8366 40 24 40C15.1634 40 8 32.8366 8 24C8 15.1634 15.1634 8 24 8C32.8366 8 40 15.1634 40 24Z" fill="black"/>
</svg>

<svg
  xmlns="http://www.w3.org/2000/svg"
  width="24"
  height="24"
  viewBox="0 0 24 24"
  fill="none"
  stroke="currentColor"
  stroke-width="2"
  stroke-linecap="round"
  stroke-linejoin="round"
>
  <path d="M14.807 23.233c-.683-.438-1.183-1.145-1.064-1.883a.5.5 0 0 1 .668-.389c1.818.675 3.846.256 5.642-1.448a.5.5 0 0 1 .818.203c.231.689.024 1.618-.48 2.382a3.8 3.8 0 0 1-2.654 1.665c-1.198.177-2.216-.073-2.93-.53" />
  <path d="M32.754 23.233c.683-.438 1.184-1.145 1.065-1.883a.5.5 0 0 0-.668-.389c-1.818.675-3.846.256-5.642-1.448a.5.5 0 0 0-.818.203c-.232.689-.024 1.618.48 2.382a3.8 3.8 0 0 0 2.653 1.665c1.199.177 2.216-.073 2.93-.53" />
  <path d="M16.965 32.176c.097-.355.245-.72.431-1.005C18.664 29.225 21.151 28 23.892 28c2.646 0 5.048 1.139 6.354 2.962l.017.023a4 4 0 0 1 .278.403c.164.285.284.637.357.973.074.338.117.737.076 1.123-.038.356-.17.9-.64 1.268-.523.41-1.15.372-1.656.195-2.394-.782-3.53-1.12-4.648-1.126-1.116-.006-2.277.317-4.714 1.128l-.008.003-.008.002c-.56.176-1.222.216-1.772-.187-.527-.386-.668-.976-.698-1.377a3.7 3.7 0 0 1 .135-1.214" />
  <path
    fill-rule="evenodd"
    d="M42 24c0 9.941-8.059 18-18 18S6 33.941 6 24 14.059 6 24 6s18 8.059 18 18m-2 0c0 8.837-7.163 16-16 16S8 32.837 8 24 15.163 8 24 8s16 7.163 16 16"
    clip-rule="evenodd"
  />
</svg>
